www/source/img/svg/icon-globe.svg

<svg width="17" height="17" viewBox="0 0 17 17" fill="none" xmlns="http://www.w3.org/2000/svg">
<path d="M5.28672 4.47352C5.45373 3.60566 5.68138 2.82627 5.95277 2.16717C6.252 1.43849 6.59696 0.880787 6.95484 0.513958C7.31074 0.148123 7.64774 0 7.95294 0C8.25813 0 8.59514 0.148123 8.95103 0.513958C9.30891 0.881781 9.65387 1.43849 9.9531 2.16717C10.2245 2.82627 10.4521 3.60566 10.6192 4.47352H5.28672ZM5.03322 1.78941C5.24541 1.25445 5.52146 0.747094 5.85535 0.278353C4.76291 0.578271 3.74694 1.10755 2.87511 1.83094C2.00328 2.55432 1.29562 3.45519 0.799275 4.47352H4.2757C4.45663 3.47245 4.71411 2.56283 5.03322 1.78941ZM10.8727 1.78941C10.6604 1.25481 10.3843 0.747787 10.0505 0.279347C11.1429 0.579155 12.1588 1.10828 13.0306 1.83149C13.9024 2.55469 14.6101 3.45537 15.1066 4.47352H11.6302C11.4492 3.47245 11.1918 2.56283 10.8727 1.78941ZM11.7803 5.46764H15.5102C15.7828 6.29829 15.9165 7.16823 15.9059 8.0424C15.359 7.58515 14.7145 7.2596 14.022 7.09086C13.3294 6.92212 12.6074 6.9147 11.9115 7.06916C11.8894 6.53377 11.8456 5.9995 11.7803 5.46764ZM8.21439 11.4323C8.20588 11.5504 8.20157 11.6688 8.20147 11.7872C8.20147 12.8708 8.61303 13.9107 9.33774 14.9127C9.22286 15.0833 9.09348 15.2436 8.95103 15.3919C8.59514 15.7577 8.25813 15.9059 7.95294 15.9059C7.64774 15.9059 7.31074 15.7577 6.95484 15.3919C6.59696 15.0241 6.252 14.4674 5.95178 13.7387C5.65444 12.9938 5.43167 12.2212 5.28672 11.4323H8.21439ZM8.38935 10.4382C8.57425 9.78247 8.89616 9.17341 9.33382 8.65126C9.77149 8.1291 10.315 7.70575 10.9283 7.40915C10.9118 6.75986 10.862 6.11184 10.7792 5.46764H5.12666C5.02126 6.29185 4.96912 7.12201 4.97059 7.95293C4.97059 8.82278 5.02626 9.65685 5.12766 10.4382H8.38836H8.38935ZM0.799275 11.4323C1.29584 12.4506 2.0037 13.3513 2.8757 14.0745C3.7477 14.7978 4.76382 15.3268 5.85634 15.6265C5.52224 15.1585 5.24586 14.6518 5.03322 14.1174C4.7151 13.342 4.45663 12.4334 4.2757 11.4323H0.799275ZM4.12559 10.4382H0.395664C0.132578 9.63607 -0.000982748 8.79712 5.44354e-06 7.95293C5.44354e-06 7.08507 0.139182 6.25001 0.395664 5.46764H4.12559C4.02816 6.25796 3.97647 7.09203 3.97647 7.95293C3.97647 8.81384 4.02816 9.6479 4.12559 10.4382ZM12.9235 7.95293C14.9823 7.95293 16.6515 9.66977 16.6515 11.7872C16.6515 13.3748 15.4754 15.038 13.172 16.8145C13.101 16.8698 13.0135 16.8998 12.9235 16.8998C12.8335 16.8998 12.746 16.8698 12.675 16.8145C10.3716 15.038 9.19558 13.3748 9.19558 11.7872C9.19558 9.66977 10.8647 7.95293 12.9235 7.95293ZM12.9235 10.5088C12.2376 10.5088 11.6809 11.0814 11.6809 11.7872C11.6809 12.4931 12.2376 13.0657 12.9235 13.0657C13.6095 13.0657 14.1662 12.4931 14.1662 11.7872C14.1662 11.0814 13.6095 10.5088 12.9235 10.5088Z" fill="#FF6D1C"/>
</svg>

<svg width="17" height="17" fill="none" xmlns="http://www.w3.org/2000/svg"><path d="M5.287 4.474c.167-.868.394-1.648.666-2.307.299-.729.644-1.286 1.002-1.653C7.31.148 7.648 0 7.953 0c.305 0 .642.148.998.514.358.368.703.924 1.002 1.653.272.66.5 1.439.666 2.307H5.287zm-.254-2.685A7.145 7.145 0 015.855.28 7.973 7.973 0 00.8 4.473h3.477c.18-1.002.438-1.911.757-2.685zm5.84 0A7.149 7.149 0 0010.05.28a7.972 7.972 0 015.056 4.195H11.63c-.18-1.002-.438-1.911-.757-2.685zm.907 3.679h3.73c.273.83.406 1.7.396 2.574a4.655 4.655 0 00-3.995-.973 19.865 19.865 0 00-.13-1.601zm-3.566 5.964a4.997 4.997 0 00-.013.355c0 1.084.412 2.124 1.137 3.126-.115.17-.245.33-.387.479-.356.366-.693.514-.998.514-.305 0-.642-.148-.998-.514-.358-.368-.703-.925-1.003-1.653a12.138 12.138 0 01-.665-2.307h2.927zm.175-.994a4.817 4.817 0 012.54-3.029 19.02 19.02 0 00-.15-1.941H5.127a19.323 19.323 0 00-.156 2.485c0 .87.055 1.704.157 2.485h3.261zm-7.59.994a7.972 7.972 0 005.057 4.194 7.142 7.142 0 01-.823-1.509 13.426 13.426 0 01-.757-2.685H.799zm3.327-.994H.396A7.945 7.945 0 010 7.953c0-.868.14-1.703.396-2.485h3.73c-.098.79-.15 1.624-.15 2.485 0 .86.052 1.695.15 2.485zm8.798-2.485c2.058 0 3.727 1.717 3.727 3.834 0 1.588-1.176 3.251-3.479 5.027a.404.404 0 01-.497 0c-2.303-1.776-3.48-3.44-3.48-5.027 0-2.117 1.67-3.834 3.729-3.834zm0 2.556c-.686 0-1.243.572-1.243 1.278 0 .706.557 1.279 1.243 1.279s1.242-.573 1.242-1.279-.556-1.278-1.242-1.278z" fill="#FF6D1C"/></svg>
